LPSOR/Assets/Models/CharacterModelSprites/Default Body/Arms/RUpperArm.svg

<?xml version="1.0" encoding="UTF-8" standalone="no"?>
<svg
   xmlns:dc="http://purl.org/dc/elements/1.1/"
   xmlns:cc="http://creativecommons.org/ns#"
   xmlns:rdf="http://www.w3.org/1999/02/22-rdf-syntax-ns#"
   xmlns:svg="http://www.w3.org/2000/svg"
   xmlns="http://www.w3.org/2000/svg"
   xmlns:sodipodi="http://sodipodi.sourceforge.net/DTD/sodipodi-0.dtd"
   xmlns:inkscape="http://www.inkscape.org/namespaces/inkscape"
   height="27.9"
   width="12.3"
   version="1.1"
   id="svg8"
   sodipodi:docname="RUpperArm.svg"
   inkscape:version="0.92.4 (5da689c313, 2019-01-14)">
  <metadata
     id="metadata14">
    <rdf:RDF>
      <cc:Work
         rdf:about="">
        <dc:format>image/svg+xml</dc:format>
        <dc:type
           rdf:resource="http://purl.org/dc/dcmitype/StillImage" />
      </cc:Work>
    </rdf:RDF>
  </metadata>
  <defs
     id="defs12" />
  <sodipodi:namedview
     pagecolor="#ffffff"
     bordercolor="#666666"
     borderopacity="1"
     objecttolerance="10"
     gridtolerance="10"
     guidetolerance="10"
     inkscape:pageopacity="0"
     inkscape:pageshadow="2"
     inkscape:window-width="1920"
     inkscape:window-height="1007"
     id="namedview10"
     showgrid="false"
     inkscape:zoom="11.962523"
     inkscape:cx="-11.740978"
     inkscape:cy="10.305159"
     inkscape:window-x="0"
     inkscape:window-y="0"
     inkscape:window-maximized="1"
     inkscape:current-layer="g6" />
  <g
     transform="matrix(2,0,0,2,6.1,13.9)"
     id="g6">
    <path
       d="M -1.8,6.45 Q -2.9,5.65 -3.05,4.1 l 0.8,-9.05 q 0.2,-1.95 2.25,-2 0.9,0 1.65,0.65 -2.35,-0.55 -2.9,2.15 L -1.65,1.3 -1.8,6.45"
       id="path2"
       style="fill:#919191;fill-opacity:1;fill-rule:evenodd;stroke:none"
       inkscape:connector-curvature="0" />
    <path
       d="m 1.65,-6.3 q 0.55,0.6 0.65,1.4 l 0.8,8.85 q 0,1 -0.6,1.85 Q 1.7,6.95 0.05,7 -0.7,7 -1.8,6.45 l 0.15,-5.15 0.4,-5.45 q 0.55,-2.7 2.9,-2.15"
       id="path4"
       style="fill:#bfbfbf;fill-opacity:1;fill-rule:evenodd;stroke:none"
       inkscape:connector-curvature="0" />
  </g>
</svg>

<?xml version="1.0" encoding="UTF-8" standalone="no"?>
<svg
   xmlns:dc="http://purl.org/dc/elements/1.1/"
   xmlns:cc="http://creativecommons.org/ns#"
   xmlns:rdf="http://www.w3.org/1999/02/22-rdf-syntax-ns#"
   xmlns:svg="http://www.w3.org/2000/svg"
   xmlns="http://www.w3.org/2000/svg"
   xmlns:sodipodi="http://sodipodi.sourceforge.net/DTD/sodipodi-0.dtd"
   xmlns:inkscape="http://www.inkscape.org/namespaces/inkscape"
   height="55.8px"
   width="24.6px"
   version="1.1"
   id="svg8"
   sodipodi:docname="RUpperArm.svg"
   inkscape:version="0.92.4 (5da689c313, 2019-01-14)">
  <metadata
     id="metadata14">
    <rdf:RDF>
      <cc:Work
         rdf:about="">
        <dc:format>image/svg+xml</dc:format>
        <dc:type
           rdf:resource="http://purl.org/dc/dcmitype/StillImage" />
      </cc:Work>
    </rdf:RDF>
  </metadata>
  <defs
     id="defs12" />
  <sodipodi:namedview
     pagecolor="#ffffff"
     bordercolor="#666666"
     borderopacity="1"
     objecttolerance="10"
     gridtolerance="10"
     guidetolerance="10"
     inkscape:pageopacity="0"
     inkscape:pageshadow="2"
     inkscape:window-width="1920"
     inkscape:window-height="1007"
     id="namedview10"
     showgrid="false"
     inkscape:zoom="11.962523"
     inkscape:cx="8.9044481"
     inkscape:cy="24.305158"
     inkscape:window-x="0"
     inkscape:window-y="0"
     inkscape:window-maximized="1"
     inkscape:current-layer="g6" />
  <g
     transform="matrix(4.0, 0.0, 0.0, 4.0, 12.2, 27.8)"
     id="g6">
    <path
       d="M-1.8 6.45 Q-2.9 5.65 -3.05 4.1 L-2.25 -4.95 Q-2.05 -6.9 0.0 -6.95 0.9 -6.95 1.65 -6.3 -0.7 -6.85 -1.25 -4.15 L-1.65 1.3 -1.8 6.45"
       fill="#de6dc8"
       fill-rule="evenodd"
       stroke="none"
       id="path2"
       style="fill:#919191;fill-opacity:1" />
    <path
       d="M1.65 -6.3 Q2.2 -5.7 2.3 -4.9 L3.1 3.95 Q3.1 4.95 2.5 5.8 1.7 6.95 0.05 7.0 -0.7 7.0 -1.8 6.45 L-1.65 1.3 -1.25 -4.15 Q-0.7 -6.85 1.65 -6.3"
       fill="#eba5dd"
       fill-rule="evenodd"
       stroke="none"
       id="path4"
       style="fill:#bfbfbf;fill-opacity:1" />
  </g>
</svg>
